X: 494
T: Duchess of York's Waltz
%R: waltz
B: "Preston's Twenty Four Country Dances for the Year 1803", Tho. Preston, ed. p.207 #2
F: http://archive.org/details/Prestons24CountryDancesForTheYear1805
F: http://folkopedia.efdss.org/wiki/File:Preston_24_1803.PDF
Z: 2011,2014 John Chambers <jc:trillian.mit.edu>
M: 3/8
L: 1/16
K: C
c'2 |\
g2e2c2 | c2B2c2 | d2B2G2 | G4de |\
fedcBc | dcBAGF | E2c2c2 | c4 :|
|: g2 |\
^fgagfa | =f4e2 | e2d2c2 | c2B2g2 |\
^fgagfg | =f4e2 | d2c2B2 | c4 :|
G2 |\
EGcGEG | FAcAFA | BdfdBd | cegece |\
EGcGEG | FAcAFA | BdfdBd | c4 |]
d2 |\
Bdgdbd | cegece | bagfed | c2B2d2 |\
BdgdBd | cegece | f2d2B2 | c4 |]
% - - - - - - - - - - - - - - - - - - - - - - - - -
%%begintext align
%% 1st Lady change places with the 2d Gentn the
%% 1st Gentn do the same with the 2d Lady, lead
%% down the middle foot it & Allemande, hands
%% 6 round, back again & swing corners.
%%endtext

%%sep 1 1 500
%%sep 1 1 500
